svgs/light/waveform.svg

<svg xmlns="http://www.w3.org/2000/svg" viewBox="0 0 640 512"><!--! Font Awesome Pro 6.0.0-alpha3 by @fontawesome - https://fontawesome.com License - https://fontawesome.com/license (Commercial License) --><path d="M383.9 512C383.8 512 383.1 512 383.9 512c-7.938-.0937-14.81-6.031-15.86-13.88L320 137.3L271.1 498.1C270.9 505.1 264.2 511.9 256.3 512c-.0781 0 .0625 0 0 0c-7.844 0-14.7-5.688-15.95-13.47L192.9 202.8l-33.06 231.5C158.7 441.1 152.2 447.8 144.4 448c-7.875 .1562-14.59-5.25-16.12-12.88L92.13 254.2L79.17 293.1C77 299.6 70.89 304 64 304L15.98 303.1C7.156 303.1 0 296.8 0 287.1C0 279.1 7.172 271.1 16 271.1L52.47 272l28.36-85.06C83.11 180.1 89.45 175.3 97 176c7.234 .4375 13.27 5.719 14.69 12.84l29.69 148.4l34.78-243.5C177.3 85.91 183.1 80.06 191.9 80c7.922 1.125 14.69 5.656 15.94 13.47l46.86 292.3L304.1 13.88C305.2 5.938 311.1 0 320 0s14.8 5.938 15.86 13.88l49.48 371.9l46.86-292.3C433.5 85.66 441.7 80.56 448.1 80c7.906 .0625 14.58 5.906 15.7 13.75l34.78 243.5l29.69-148.4c1.422-7.125 7.453-12.41 14.69-12.84c7.469-.6875 13.88 4.031 16.17 10.91L587.5 272L624 271.1c8.828 0 16 7.169 16 16.01c0 8.812-7.156 15.99-15.98 15.99L576 304c-6.891 0-13-4.406-15.17-10.94l-12.95-38.84l-36.19 180.9C510.2 442.8 503.3 448 495.6 448c-7.797-.2187-14.3-6.031-15.41-13.75l-33.06-231.5l-47.42 295.8C398.4 506.3 391.7 512 383.9 512z"/></svg>

<svg xmlns="http://www.w3.org/2000/svg" viewBox="0 0 640 512"><!-- Font Awesome Pro 6.0.0-alpha2 by @fontawesome - https://fontawesome.com License - https://fontawesome.com/license (Commercial License) --><path d="M383.875 512C383.813 512 383.734 512 383.656 512C375.719 511.906 369.063 505.969 368.016 498.125L320 137.281L271.984 498.125C270.938 505.969 264.281 511.906 256.344 512C256.266 512 256.188 512 256.125 512C248.281 512 241.578 506.312 240.328 498.531L192.906 202.75L159.844 434.25C158.734 441.969 152.234 447.781 144.438 448C136.562 448.156 129.844 442.75 128.313 435.125L92.125 254.219L79.172 293.062C77 299.594 70.891 304 64 304C64 304 64 304 63.984 304L15.984 303.969C7.156 303.969 0 296.781 0 287.969C0 279.125 7.172 271.969 16 271.969C16 271.969 16 271.969 16.016 271.969L52.469 272L80.828 186.938C83.109 180.062 89.453 175.344 97 176.031C104.234 176.469 110.266 181.75 111.688 188.875L141.375 337.281L176.156 93.75C177.281 85.906 183.953 80.062 191.859 80C199.781 81.125 206.547 85.656 207.797 93.469L254.656 385.75L304.141 13.875C305.203 5.938 311.984 0 320 0S334.797 5.938 335.859 13.875L385.344 385.75L432.203 93.469C433.469 85.656 441.688 80.562 448.141 80C456.047 80.062 462.719 85.906 463.844 93.75L498.625 337.281L528.313 188.875C529.734 181.75 535.766 176.469 543 176.031C550.469 175.344 556.875 180.063 559.172 186.938L587.531 272L623.984 271.969C624 271.969 624 271.969 624 271.969C632.828 271.969 640 279.125 640 287.969C640 296.781 632.844 303.969 624.016 303.969L576.016 304C576 304 576 304 576 304C569.109 304 563 299.594 560.828 293.062L547.875 254.219L511.687 435.125C510.156 442.75 503.266 448 495.562 448C487.766 447.781 481.266 441.969 480.156 434.25L447.094 202.75L399.672 498.531C398.422 506.312 391.719 512 383.875 512Z"/></svg>
